X: 588
P: Longways for as many as will
M: 6/8
L: 1/8
K: Dm
e |\
eAe eae | eAe eae | ^fga a2^g | a3- a2a |\
aff fdd | dAA AFA | def f>ed | d3- d2 |]

